X:199
U: ~ = !turn!
%%topmargin 3cm
T:Spanish Lady Polka
B:Traditional Irish Fiddle Tunes. Randy Miller and Jack Perron.
Z:Transcribed by Ralph Palmer
S:Mary O'Hara
R:Polka
L:1/8
M:C|
K:AMix
AG | FA AB/2c/2 d>e de/2f/2 | ge fd BA AA/2G/2 | FA AB/2c/2 d>e de/2f/2 | ge fd BA A ::
e | fa af ed d>e | fa af ed e>g | fa af ed de/2f/2 | ge fd BA A :|]
